!!!OTL: Geistliche Lieder im Jacobston. / c. Dritte Art.
!!!ARE: Europa, Mitteleuropa, Deutschland
!!!SCT: A0611C
!!!TXL: @@GMH
!!!YEM: Copyright 1995, estate of Helmut Schaffrath.
**kern	**text
*M4/2	*
*met(c)	*
*k[]	*
*a:	*
=1	=1
!LO:TX:a:t=a moll	!
{1a	Wer
2cc	hie
2b	das
=2	=2
2cc	E-
2dd	-lend
2ee	baw-
2ee	-en
=3	=3
1ee}	wil,
{1ee	der
=4	=4
2dd	heb
2ee	ſich
2ff	auff
2ee	vnd
=5	=5
2dd	ʒieh
2cc#	da-
1dd}	-hin,
=6	=6
{1dd	und
2ee	geh
2dd	des
=7	=7
2cc	her-
2cc	-ren
1a	Straſ-
=8	=8
0g}	-ſe,
=9	=9
{1ee	glaub
2cc	vnd
2cc	ge-
=10	=10
2a	-duld
2a	darff
2dd	er
2cc#	gar
=11	=11
1dd}	viel,
{1ee	ſoll
=12	=12
2cc	er
2b	die
2a	Welt
2cc	ver-
=13	=13
1b	-laſ-
1a/ll}	-ſen.
==	==
!!!GTL: Geistliche Volkslieder
!!!AGN: Romanze, Ballade, Lied, religioeses Lied
!! M Praetorius Mus. Sion. Vii. No. 187
!!!ONB: ESAC (Essen Associative Code) Database: ALTDEU
!!!AMT: simple quadruple
!!!AIN: vox
!!!EED: Helmut Schaffrath
!!!EEV: 1.0
!!!RDF**kern: l = terminal long
!!!URL-scan: https://rosdok.uni-rostock.de/mcrviewer/recordIdentifier/rosdok_ppn738218359/iview2/phys_0795.iview2?x=-1021.1722681204792&y=283.4967886512168&scale=0.35534665417946304&rotation=0&layout=singlePageLayout&logicalDiv=log_0007
!!!ENC: Anna Maria Matuszewska
!!!EEV: 2024/25/03
*-	*-
